SVG_Azure_Grouped/Compute/Azure Stack User Subscription.svg

<?xml version="1.0" encoding="UTF-8" standalone="no"?>
<!-- Generated by Microsoft Visio, SVG Export Azure Stack User Subscription.svg Page-1 -->

<svg
   xmlns:dc="http://purl.org/dc/elements/1.1/"
   xmlns:cc="http://creativecommons.org/ns#"
   xmlns:rdf="http://www.w3.org/1999/02/22-rdf-syntax-ns#"
   xmlns:svg="http://www.w3.org/2000/svg"
   xmlns="http://www.w3.org/2000/svg"
   xmlns:sodipodi="http://sodipodi.sourceforge.net/DTD/sodipodi-0.dtd"
   xmlns:inkscape="http://www.inkscape.org/namespaces/inkscape"
   width="0.78780854in"
   height="0.78744632in"
   viewBox="0 0 56.722067 56.696262"
   xml:space="preserve"
   class="st6"
   version="1.1"
   id="svg71"
   sodipodi:docname="Azure Stack User Subscription.svg"
   style="font-size:12px;overflow:visible;color-interpolation-filters:sRGB;fill:none;fill-rule:evenodd;stroke-linecap:square;stroke-miterlimit:3"
   inkscape:version="0.92.5 (2060ec1f9f, 2020-04-08)"><metadata
   id="metadata75"><rdf:RDF><cc:Work
       rdf:about=""><dc:format>image/svg+xml</dc:format><dc:type
         rdf:resource="http://purl.org/dc/dcmitype/StillImage" /></cc:Work></rdf:RDF></metadata><sodipodi:namedview
   pagecolor="#ffffff"
   bordercolor="#666666"
   borderopacity="1"
   objecttolerance="10"
   gridtolerance="10"
   guidetolerance="10"
   inkscape:pageopacity="0"
   inkscape:pageshadow="2"
   inkscape:window-width="640"
   inkscape:window-height="480"
   id="namedview73"
   showgrid="false"
   inkscape:zoom="1.4265597"
   inkscape:cx="37.810756"
   inkscape:cy="37.366168"
   inkscape:window-x="0"
   inkscape:window-y="0"
   inkscape:window-maximized="0"
   inkscape:current-layer="svg71" />
	<style
   type="text/css"
   id="style2">
	<![CDATA[
		.st1 {fill:url(#grad0-7);stroke:none;stroke-linecap:butt;stroke-width:33.366}
		.st2 {fill:#ffffff;fill-opacity:0.8;stroke:none;stroke-linecap:butt;stroke-width:33.366}
		.st3 {fill:url(#grad0-13);stroke:none;stroke-linecap:butt;stroke-width:33.366}
		.st4 {fill:url(#grad1-18);stroke:none;stroke-linecap:butt;stroke-width:33.366}
		.st5 {fill:#ff9300;fill-opacity:0.75;stroke:none;stroke-linecap:butt;stroke-width:33.366}
		.st6 {fill:none;fill-rule:evenodd;font-size:12px;overflow:visible;stroke-linecap:square;stroke-miterlimit:3}
	]]>
	</style>

	<defs
   id="Patterns_And_Gradients">
		<linearGradient
   id="grad0-7"
   x1="-0.018569257"
   y1="118.19735"
   x2="38.996187"
   y2="118.19735"
   gradientTransform="scale(1.2671243,0.78918859)"
   gradientUnits="userSpaceOnUse">
			<stop
   offset="0.22"
   stop-color="#32d4f5"
   stop-opacity="1"
   id="stop4" />
			<stop
   offset="1"
   stop-color="#198ab3"
   stop-opacity="1"
   id="stop6" />
		</linearGradient>
		<linearGradient
   id="grad0-13"
   x1="0"
   y1="94.416523"
   x2="28.102363"
   y2="94.416523"
   gradientTransform="scale(0.98746145,1.0126978)"
   gradientUnits="userSpaceOnUse">
			<stop
   offset="0.22"
   stop-color="#32d4f5"
   stop-opacity="1"
   id="stop9" />
			<stop
   offset="1"
   stop-color="#198ab3"
   stop-opacity="1"
   id="stop11" />
		</linearGradient>
		<radialGradient
   id="grad1-18"
   cx="26.098483"
   cy="97.247578"
   r="36.530704"
   gradientTransform="scale(0.78376237,1.2758969)"
   fx="26.098483"
   fy="97.247578"
   gradientUnits="userSpaceOnUse">
			<stop
   offset="0.27"
   stop-color="#ffd70f"
   stop-opacity="1"
   id="stop14" />
			<stop
   offset="1"
   stop-color="#fea11b"
   stop-opacity="1"
   id="stop16" />
		</radialGradient>
	</defs>
	<g
   id="g69"
   transform="translate(-33.366168,-33.365925)">
		<title
   id="title20">Page-1</title>
		<g
   id="group11743-1"
   transform="translate(33.3894,-34.0157)">
			<title
   id="title22">Azure Stack User Subscription.11743</title>
			<g
   id="group11744-2">
				<title
   id="title24">g35</title>
				<g
   id="group11745-3"
   transform="translate(0,-0.856276)">
					<title
   id="title26">g27</title>
					<g
   id="shape11746-4">
						<title
   id="title28">path21</title>
						<path
   d="m 44.99,124.07 a 4.41628,4.52912 -180 0 0 4.41,-4.49 2.66954,2.73775 -180 0 0 0,-0.54 C 47.66,104.84 39.78,93.28 24.72,93.28 9.66,93.28 1.52,103.09 0,119.07 a 4.41628,4.52912 -180 0 0 3.92,4.97 h 41.07 z"
   class="st1"
   id="path30"
   inkscape:connector-curvature="0"
   style="fill:url(#grad0-7);stroke:none;stroke-width:33.36600113;stroke-linecap:butt" />
					</g>
					<g
   id="shape11747-8"
   transform="translate(17.2367,-9.76803)">
						<title
   id="title33">path23</title>
						<path
   d="M 7.48,106.43 A 13.4795,13.824 0 0 1 0,104.17 l 7.42,19.9 7.38,-19.77 a 13.7432,14.0944 0 0 1 -7.32,2.13 z"
   class="st2"
   id="path35"
   inkscape:connector-curvature="0"
   style="fill:#ffffff;fill-opacity:0.8;stroke:none;stroke-width:33.36600113;stroke-linecap:butt" />
					</g>
					<g
   id="shape11748-10"
   transform="translate(10.8429,-27.3775)">
						<title
   id="title38">circle25</title>
						<ellipse
   cx="13.875"
   cy="109.845"
   rx="13.875"
   ry="14.2296"
   class="st3"
   id="ellipse40"
   style="fill:url(#grad0-13);stroke:none;stroke-width:33.36600113;stroke-linecap:butt" />
					</g>
				</g>
				<g
   id="group11749-14"
   transform="translate(36.2438)">
					<title
   id="title44">g33</title>
					<g
   id="shape11750-15">
						<title
   id="title46">f2ddd4d7-46fc-4e48-ae24-8fde036</title>
						<path
   d="m 19.36,104.09 a 3.72417,3.81933 -180 0 0 0,-5.41 l -6.4,-6.76 a 3.69122,3.78553 -180 0 0 -5.27,0 L 1.1,98.48 a 3.75713,3.85313 -180 0 0 0,5.44 l 5.3,5.54 a 1.02168,1.04778 0 0 1 0.3,0.75 v 10.14 a 1.18646,1.21678 -180 0 0 0.4,0.94 l 2.4,2.54 a 0.889847,0.912584 -180 0 0 1.21942,0 l 2.37058,-2.44 1.39,-1.45 a 0.461402,0.473192 -180 0 0 0,-0.67599 L 13.46,118.22 a 0.560274,0.57459 0 0 1 0,-0.77739 L 14.48,116.39 a 0.428445,0.439392 -180 0 0 0,-0.67599 L 13.49,114.67 a 0.560274,0.57459 0 0 1 0,-0.77739 L 14.51,112.84 a 0.461402,0.473192 -180 0 0 0,-0.67599 L 13.13,110.71 v -0.37 z m -9,-10.51 a 2.17518,2.23076 0 0 1 2.11,2.19 2.07631,2.12936 0 0 1 -2.15,2.17 2.14222,2.19696 0 0 1 0,-4.36 z"
   class="st4"
   id="path48"
   inkscape:connector-curvature="0"
   style="fill:url(#grad1-18);stroke:none;stroke-width:33.36600113;stroke-linecap:butt" />
					</g>
					<g
   id="shape11751-19"
   transform="translate(8.44629,-3.21796)">
						<title
   id="title51">e15034b6-eebb-4253-ac69-86068a1</title>
						<path
   d="m 0.13,123.97 a 0.461402,0.473192 -180 0 0 0.790975,-0.33799 L 0.92,115.35 a 0.527316,0.540791 -180 0 0 -0.197744,-0.43939 0.461402,0.473192 -180 0 0 -0.72506,0.40559 L 0,123.63 a 0.428445,0.439392 -180 0 0 0.131829,0.33799 z"
   class="st5"
   id="path53"
   inkscape:connector-curvature="0"
   style="fill:#ff9300;fill-opacity:0.75;stroke:none;stroke-width:33.36600113;stroke-linecap:butt" />
					</g>
					<g
   id="shape11752-21"
   transform="rotate(-89.65,-3.1280315,105.10804)">
						<title
   id="title56">f3d2a589-08f4-4e99-9635-cc67aba</title>
						<path
   d="m 0,123.5 a 0.560287,0.574603 -180 0 0 0.560274,0.57459 L 0.69,124.07 a 0.560287,0.574603 -180 0 0 0.560274,-0.57459 L 1.25,113.8 A 0.560287,0.574603 -180 0 0 0.689726,113.22541 L 0.56,113.23 a 0.560287,0.574603 -180 0 0 -0.560274,0.57459 z"
   class="st5"
   id="path58"
   inkscape:connector-curvature="0"
   style="fill:#ff9300;fill-opacity:0.75;stroke:none;stroke-width:33.36600113;stroke-linecap:butt" />
					</g>
					<g
   id="shape11753-23"
   transform="rotate(-89.65,-2.0840732,106.17864)">
						<title
   id="title61">bc7793e0-f7bc-4cc4-abb0-181c6c6</title>
						<path
   d="m 0,123.5 a 0.560287,0.574603 -180 0 0 0.560274,0.57459 L 0.69,124.07 a 0.560287,0.574603 -180 0 0 0.560274,-0.57459 L 1.25,113.8 A 0.560287,0.574603 -180 0 0 0.689726,113.22541 L 0.56,113.23 a 0.560287,0.574603 -180 0 0 -0.560274,0.57459 z"
   class="st5"
   id="path63"
   inkscape:connector-curvature="0"
   style="fill:#ff9300;fill-opacity:0.75;stroke:none;stroke-width:33.36600113;stroke-linecap:butt" />
					</g>
				</g>
			</g>
		</g>
	</g>
</svg>

<?xml version="1.0" encoding="UTF-8" standalone="no"?>
<!DOCTYPE svg PUBLIC "-//W3C//DTD SVG 1.1//EN" "http://www.w3.org/Graphics/SVG/1.1/DTD/svg11.dtd">
<!-- Generated by Microsoft Visio, SVG Export Azure Stack User Subscription.svg Page-1 -->
<svg xmlns="http://www.w3.org/2000/svg" xmlns:xlink="http://www.w3.org/1999/xlink" xmlns:ev="http://www.w3.org/2001/xml-events"
		width="1.71456in" height="1.72326in" viewBox="0 0 123.448 124.075" xml:space="preserve" color-interpolation-filters="sRGB"
		class="st6">
	<style type="text/css">
	<![CDATA[
		.st1 {fill:url(#grad0-7);stroke:none;stroke-linecap:butt;stroke-width:33.366}
		.st2 {fill:#ffffff;fill-opacity:0.8;stroke:none;stroke-linecap:butt;stroke-width:33.366}
		.st3 {fill:url(#grad0-13);stroke:none;stroke-linecap:butt;stroke-width:33.366}
		.st4 {fill:url(#grad1-18);stroke:none;stroke-linecap:butt;stroke-width:33.366}
		.st5 {fill:#ff9300;fill-opacity:0.75;stroke:none;stroke-linecap:butt;stroke-width:33.366}
		.st6 {fill:none;fill-rule:evenodd;font-size:12px;overflow:visible;stroke-linecap:square;stroke-miterlimit:3}
	]]>
	</style>

	<defs id="Patterns_And_Gradients">
		<linearGradient id="grad0-7" x1="0" y1="0" x2="1" y2="0" gradientTransform="rotate(90 0.5 0.5)">
			<stop offset="0.22" stop-color="#32d4f5" stop-opacity="1"/>
			<stop offset="1" stop-color="#198ab3" stop-opacity="1"/>
		</linearGradient>
		<linearGradient id="grad0-13" x1="0" y1="0" x2="1" y2="0" gradientTransform="rotate(85.39990735375 0.5 0.5)">
			<stop offset="0.22" stop-color="#32d4f5" stop-opacity="1"/>
			<stop offset="1" stop-color="#198ab3" stop-opacity="1"/>
		</linearGradient>
		<radialGradient id="grad1-18" cx="1" cy="1" r="1.4">
			<stop offset="0.27" stop-color="#ffd70f" stop-opacity="1"/>
			<stop offset="1" stop-color="#fea11b" stop-opacity="1"/>
		</radialGradient>
	</defs>
	<g>
		<title>Page-1</title>
		<g id="group11464-1" transform="translate(33.3894,-34.0157)">
			<title>Azure Stack User Subscription.11464</title>
			<g id="group11465-2">
				<title>g35</title>
				<g id="group11466-3" transform="translate(-2.79776E-13,-0.856276)">
					<title>g27</title>
					<g id="shape11467-4">
						<title>path21</title>
						<path d="M44.99 124.07 A4.41628 4.52912 -180 0 0 49.4 119.58 A2.66954 2.73775 -180 0 0 49.4 119.04 C47.66
									 104.84 39.78 93.28 24.72 93.28 C9.66 93.28 1.52 103.09 0 119.07 A4.41628 4.52912 -180 0 0 3.92
									 124.04 L44.99 124.04 L44.99 124.07 Z" class="st1"/>
					</g>
					<g id="shape11468-8" transform="translate(17.2367,-9.76803)">
						<title>path23</title>
						<path d="M7.48 106.43 A13.4795 13.824 0 0 1 -0 104.17 L7.42 124.07 L14.8 104.3 A13.7432 14.0944 0 0 1 7.48
									 106.43 Z" class="st2"/>
					</g>
					<g id="shape11469-10" transform="translate(10.8429,-27.3775)">
						<title>circle25</title>
						<ellipse cx="13.875" cy="109.845" rx="13.875" ry="14.2296" class="st3"/>
					</g>
				</g>
				<g id="group11470-14" transform="translate(36.2438,0)">
					<title>g33</title>
					<g id="shape11471-15">
						<title>f2ddd4d7-46fc-4e48-ae24-8fde036</title>
						<path d="M19.36 104.09 A3.72417 3.81933 -180 0 0 19.36 98.68 L12.96 91.92 A3.69122 3.78553 -180 0 0 7.69
									 91.92 L1.1 98.48 A3.75713 3.85313 -180 0 0 1.1 103.92 L6.4 109.46 A1.02168 1.04778 0 0 1 6.7
									 110.21 L6.7 120.35 A1.18646 1.21678 -180 0 0 7.1 121.29 L9.5 123.83 a0.889847 0.912584 -180
									 0 0 1.21942 0 L13.09 121.39 L14.48 119.94 a0.461402 0.473192 -180 0 0 -1.77636E-14 -0.675988
									 L13.46 118.22 a0.560274 0.57459 0 0 1 7.10543E-15 -0.777387 L14.48 116.39 a0.428445 0.439392
									 -180 0 0 -8.88178E-15 -0.675988 L13.49 114.67 a0.560274 0.57459 0 0 1 1.77636E-15 -0.777387
									 L14.51 112.84 a0.461402 0.473192 -180 0 0 0 -0.675988 L13.13 110.71 L13.13 110.34 L19.36 104.09
									 ZM10.36 93.58 A2.17518 2.23076 0 0 1 12.47 95.77 A2.07631 2.12936 0 0 1 10.32 97.94 A2.14222
									 2.19696 0 0 1 10.32 93.58 L10.36 93.58 Z" class="st4"/>
					</g>
					<g id="shape11472-19" transform="translate(8.44629,-3.21796)">
						<title>e15034b6-eebb-4253-ac69-86068a1</title>
						<path d="M0.13 123.97 a0.461402 0.473192 -180 0 0 0.790975 -0.337994 L0.92 115.35 a0.527316 0.540791 -180
									 0 0 -0.197744 -0.439392 a0.461402 0.473192 -180 0 0 -0.72506 0.405593 L0 123.63 a0.428445 0.439392
									 -180 0 0 0.131829 0.337994 Z" class="st5"/>
					</g>
					<g id="shape11473-21" transform="translate(-108.215,101.338) rotate(-89.65)">
						<title>f3d2a589-08f4-4e99-9635-cc67aba</title>
						<path d="M0 123.5 a0.560287 0.574603 -180 0 0 0.560274 0.57459 L0.69 124.07 a0.560287 0.574603 -180 0 0 0.560274
									 -0.57459 L1.25 113.8 a0.560287 0.574603 -180 0 0 -0.560274 -0.57459 L0.56 113.23 a0.560287 0.574603
									 -180 0 0 -0.560274 0.57459 L0 123.5 Z" class="st5"/>
					</g>
					<g id="shape11474-23" transform="translate(-108.248,103.446) rotate(-89.65)">
						<title>bc7793e0-f7bc-4cc4-abb0-181c6c6</title>
						<path d="M0 123.5 a0.560287 0.574603 -180 0 0 0.560274 0.57459 L0.69 124.07 a0.560287 0.574603 -180 0 0 0.560274
									 -0.57459 L1.25 113.8 a0.560287 0.574603 -180 0 0 -0.560274 -0.57459 L0.56 113.23 a0.560287 0.574603
									 -180 0 0 -0.560274 0.57459 L0 123.5 Z" class="st5"/>
					</g>
				</g>
			</g>
		</g>
	</g>
</svg>
